X:2
T:Avant-garde Study 002
C:Generated
M:5/4
L:1/8
Q:1/8=94
K:Gphr
A2 E, A d | ^D2 E a ^G, | A,2 ^G,3 | ^C,2 G2 ^C | ^G,3 ^C, d | ^g3 ^d e | F3 ^F f | c3 ^c2 | ^F, G,2 ^F, g | C2 ^c ^F2 | g ^c2 D ^C, | C3 F2 | e2 ^d2 ^G |
